X: 38643
T: Stormy Night, The
R: jig
M: 6/8
K: Dmajor
|:AFA def|g2e fed|edc dcA|GFG EFG|
AFA def|g2e fed|cAA faf|1 gec dFG:|2 gec d2c||
|:dfa afd|BAF Adf|g2e fed|ecA gfe|
dfa afd|BAF Adf|ged cde|1 edc d2c:|2 edc dAG||
|:FDF AFA|dcd edc|dAG FGA|BGE EFG|
AFA dcd|e2d eaf|ged cde|1 edc dAG:|2 edc d2e||
|:fef dfa|bgb afd|g2e fed|ecA gfe|
dcd AFD|GFG Adf|ged cde|1 edc d2e:|2 edc d2B||

